X:1
T:I Know God’s Promise Is True
T:I Know God’s Promise Is True
T:Lelia Naylor Morris
T:Lelia Naylor Morris, 1899
T:Public Domain Courtesy of the Cyber Hymnal™
C:Lelia Naylor Morris
Z:Public Domain
Z:Courtesy of the Cyber Hymnal™
%%score ( 1 2 ) ( 3 4 )
L:1/8
Q:1/4=95
M:6/8
K:G
V:1 treble 
V:2 treble 
V:3 bass 
V:4 bass 
V:1
 [B,D] | ([B,D][DB])[CA] [B,G]2 [B,D] | ([B,D][G,B,])[CE] [B,D]2 [B,G] | [A,F]2 [CE] (CD)[CF] | %4
w: 1.~For|God * so loved this|sin- * ful world, His|Son He free- * ly|
w: 2.~I|was * a way- ward,|wan- * d’ring child, A|slave to sin * and|
w: 3.~The|“who- * so- ev- er”|of * the Lord, I|trust- ed was * for|
w: 4.~E-|ter- * nal life, be-|gun * be- low, Now|fills my heart * and|
 ([CE]3 [B,D]2) [B,D] | [B,D]2 [B,G] [DB]2 [=Fd] | [Ed]2 [Ec] (cB)[EA] | (GF)[DG] [DB]2 [CA] | %8
w: gave, * That|who- so- ev- er|would be- lieve * E-|ter- * nal life should|
w: fear, * Un-|til this bless- èd|prom- ise fell * Like|mu- * sic on my|
w: me, * I|took Him at His|gra- cious word; * From|sin * He set me|
w: soul. * I’ll|sing His praise for-|ev- er- more * Who|has * re- deemed my|
 [B,G]3- [B,G]2 ||"^Refrain" [B,D] | [DB]2 [B,G] ([A,F][B,G])[CA] | G3- [B,G]2 [B,D] | %12
w: have. *||||
w: ear. *|’Tis|true, O yes, * ’tis|true, God’s won-|
w: free. *||||
w: soul. *||||
 [DB]>[CA][B,G] [^CG][CF][CG] | [CA]3- [CA]2 [CD]/[CD]/ | [B,D]>[DB][DB] [B,G][CA][DB] | %15
w: |||
w: * der- ful prom- ise is|true; * For I’ve|trust- ed, and test- ed, and|
w: |||
w: |||
 [Ec]3 [CE]2 [Ec]/[Ec]/ | [DB]2 [B,G] [A,F][B,G][CA] | G3- [B,G]2 |] %18
w: |||
w: tried it, And I|know God’s prom- ise is|true. *|
w: |||
w: |||
V:2
 x | x6 | x6 | x3 A,2 x | x6 | x6 | x3 E2 x | D2 x4 | x5 || x | x6 | B,B,C x3 | x6 | x6 | x6 | x6 | %16
 x6 | B,2 C x2 |] %18
V:3
 [G,,G,] | [G,,G,]2 [G,,D,] [G,,D,]2 [G,,G,] | (G,D,)[G,,G,] [G,,G,]2 [G,,D,] | %3
w: ~|~ ~ ~ ~|~ * ~ ~ ~|
 D,2 [D,F,] [D,F,]2 [D,A,] | [G,,G,]3- [G,,G,]2 [G,,G,] | [G,,G,]2 [G,,D,] [G,,G,]2 [B,,G,] | %6
w: ~ ~ ~ ~|~ * ~|~ ~ ~ ~|
 [C,G,]2 [C,G,] ([A,,A,][B,,^G,])[C,A,] | (B,A,)[D,B,] [D,G,]2 [D,F,] | [G,,D,]3- [G,,D,]2 || %9
w: ~ ~ ~ * ~|~ * ~ ~ ~|~ *|
 [G,,G,] | [G,,G,]2 [G,,D,] D,2 D, | [G,,D,][G,,D,][G,,E,] [G,,D,]2 [G,,G,] | %12
w: ~|~ ~ ~ the|prom- ise is true ~|
 [G,,G,]>[G,,G,][G,,G,] [A,,E,][A,,A,][A,,G,] | [D,F,]2 [D,F,] F,2 [A,,F,]/[A,,F,]/ | %14
w: ~ ~ ~ ~ ~ ~|~ ~ ~ ~ ~|
 [G,,G,]>[G,,G,][G,,G,] [G,,D,][G,,D,][G,,G,] | [C,G,]3 [C,G,]2 [C,G,]/[C,G,]/ | %16
w: ~ ~ ~ ~ ~ ~|~ ~ ~ ~|
 [D,G,]2 D, D,D,D, | D,2 E, [G,,D,]2 |] %18
w: ~ ~ ~ ~ ~|true,~’tis true. *|
V:4
 x | x6 | G,,2 x4 | D,2 x4 | x6 | x6 | x6 | D,2 x4 | x5 || x | x3 D,2 D, | x6 | x6 | x3 (D,C,) x | %14
 x6 | x6 | x2 D, D,D,D, | G,,3- x2 |] %18

